X:110
T: Miss Montgomery's
S: Hugh Gillespie
Z: B.Black
R: reel
M: 4/4
L: 1/8
K: D
dcdA FDFA | dcdA cdec | dcdA FG A2 | Beed cABc :|
d2 ad bdad | d2 ad cdec | d2 ad bdad | gfge cdec |
d2 ad bdad | d2 ad cd e2 | bagf gfed | e2 ed egfe ||
